svg/business/currency_won_2_line.svg

<?xml version="1.0" encoding="UTF-8"?>
<svg width="24px" height="24px" viewBox="0 0 24 24" version="1.1" xmlns="http://www.w3.org/2000/svg" xmlns:xlink="http://www.w3.org/1999/xlink">
    <title>currency_won_2_line</title>
    <g id="页面-1" stroke="none" stroke-width="1" fill="none" fill-rule="evenodd">
        <g id="Business" transform="translate(-672.000000, -288.000000)" fill-rule="nonzero">
            <g id="currency_won_2_line" transform="translate(672.000000, 288.000000)">
                <path d="M24,0 L24,24 L0,24 L0,0 L24,0 Z M12.5934901,23.257841 L12.5819402,23.2595131 L12.5108777,23.2950439 L12.4918791,23.2987469 L12.4918791,23.2987469 L12.4767152,23.2950439 L12.4056548,23.2595131 C12.3958229,23.2563662 12.3870493,23.2590235 12.3821421,23.2649074 L12.3780323,23.275831 L12.360941,23.7031097 L12.3658947,23.7234994 L12.3769048,23.7357139 L12.4804777,23.8096931 L12.4953491,23.8136134 L12.4953491,23.8136134 L12.5071152,23.8096931 L12.6106902,23.7357139 L12.6232938,23.7196733 L12.6232938,23.7196733 L12.6266527,23.7031097 L12.609561,23.275831 C12.6075724,23.2657013 12.6010112,23.2592993 12.5934901,23.257841 L12.5934901,23.257841 Z M12.8583906,23.1452862 L12.8445485,23.1473072 L12.6598443,23.2396597 L12.6498822,23.2499052 L12.6498822,23.2499052 L12.6471943,23.2611114 L12.6650943,23.6906389 L12.6699349,23.7034178 L12.6699349,23.7034178 L12.678386,23.7104931 L12.8793402,23.8032389 C12.8914285,23.8068999 12.9022333,23.8029875 12.9078286,23.7952264 L12.9118235,23.7811639 L12.8776777,23.1665331 C12.8752882,23.1545897 12.8674102,23.1470016 12.8583906,23.1452862 L12.8583906,23.1452862 Z M12.1430473,23.1473072 C12.1332178,23.1423925 12.1221763,23.1452606 12.1156365,23.1525954 L12.1099173,23.1665331 L12.0757714,23.7811639 C12.0751323,23.7926639 12.0828099,23.8018602 12.0926481,23.8045676 L12.108256,23.8032389 L12.3092106,23.7104931 L12.3186497,23.7024347 L12.3186497,23.7024347 L12.3225043,23.6906389 L12.340401,23.2611114 L12.337245,23.2485176 L12.337245,23.2485176 L12.3277531,23.2396597 L12.1430473,23.1473072 Z" id="MingCute" fill-rule="nonzero"></path>
                <path d="M5.80388,4.01937 C6.34544,3.91106 6.87227,4.26227 6.98058,4.80383 L9.10843,15.4431 L11.0299,7.75741 C11.1411,7.31225 11.5411,6.99995 12,6.99995 C12.4589,6.99995 12.8589,7.31225 12.9701,7.75741 L14.8916,15.4431 L17.0194,4.80383 C17.1277,4.26227 17.6546,3.91106 18.1961,4.01937 C18.7377,4.12768 19.0889,4.65451 18.9806,5.19606 L18.2198,8.99995 L19,8.99995 C19.5523,8.99995 20,9.44766 20,9.99995 C20,10.5522 19.5523,10.9999 19,10.9999 L18,10.9999 C17.9396,10.9999 17.8804,10.9946 17.8229,10.9843 L17.4198,12.9999 L19,12.9999 C19.5523,12.9999 20,13.4477 20,13.9999 C20,14.5522 19.5523,14.9999 19,14.9999 L17.0198,14.9999 L16.155,19.3239 C15.9039,20.5792 14.1246,20.6216 13.8141,19.3796 L12,12.1231 L10.1859,19.3796 C9.87537,20.6216 8.09605,20.5792 7.84499,19.3239 L6.9802,14.9999 L5,14.9999 C4.44772,14.9999 4,14.5522 4,13.9999 C4,13.4477 4.44772,12.9999 5,12.9999 L6.5802,12.9999 L6.17707,10.9843 C6.1196,10.9946 6.06043,10.9999 6,10.9999 L5,10.9999 C4.44772,10.9999 4,10.5522 4,9.99995 C4,9.44766 4.44772,8.99995 5,8.99995 L5.7802,8.99995 L5.01942,5.19606 C4.91111,4.65451 5.26232,4.12768 5.80388,4.01937 Z" id="路径" fill="#09244B"></path>
            </g>
        </g>
    </g>
</svg>

<svg xmlns="http://www.w3.org/2000/svg" width="24" height="24"><g fill="none" fill-rule="nonzero"><path d="M24 0v24H0V0zM12.593 23.258l-.011.002-.071.035-.02.004-.014-.004-.071-.035c-.01-.004-.019-.001-.024.005l-.004.01-.017.428.005.02.01.013.104.074.015.004.012-.004.104-.074.012-.016.004-.017-.017-.427c-.002-.01-.009-.017-.017-.018m.265-.113-.013.002-.185.093-.01.01-.003.011.018.43.005.012.008.007.201.093c.012.004.023 0 .029-.008l.004-.014-.034-.614c-.003-.012-.01-.02-.02-.022m-.715.002a.023.023 0 0 0-.027.006l-.006.014-.034.614c0 .012.007.02.017.024l.015-.002.201-.093.01-.008.004-.011.017-.43-.003-.012-.01-.01z"/><path fill="#09244B" d="M5.804 4.02a1 1 0 0 1 1.177.784l2.127 10.64 1.922-7.687a1 1 0 0 1 1.94 0l1.922 7.686 2.127-10.64a1 1 0 0 1 1.962.393L18.22 9H19a1 1 0 1 1 0 2h-1c-.06 0-.12-.005-.177-.016L17.42 13H19a1 1 0 0 1 0 2h-1.98l-.865 4.324c-.251 1.255-2.03 1.298-2.34.056L12 12.123l-1.814 7.257c-.31 1.242-2.09 1.2-2.341-.056L6.98 15H5a1 1 0 1 1 0-2h1.58l-.403-2.016C6.12 10.994 6.06 11 6 11H5a1 1 0 1 1 0-2h.78l-.76-3.804a1 1 0 0 1 .784-1.177"/></g></svg>
